X:110
T:New Horace. JJo.110
S:J.Jones MS,1801,N.Shrops.
M:2/4
L:1/8
Q:1/2=80
K:C
e|dBcA|GEEF|GcBc|e2 de|dBcA|GEEF|Bc {e}dc/B/|{B}c3:|!
e|fdec|Bcdg|fdec|c2 Bg|ffed|cBAG|FDfd|”D.C.”c2B|]

